X:1
T:Title
T:Sposa son disprezzata
T:Antonio Vivaldi
C:Composer
%%score 1 { ( 2 5 6 7 ) | ( 3 4 ) }
L:1/8
M:3/4
K:G
V:1 treble nm="Soprano" snm="S."
V:2 treble nm="Piano" snm="Pno."
V:5 treble 
V:6 treble 
V:7 treble 
V:3 bass 
V:4 bass 
V:1
"^Largo" z6 | z6 | z6 | z6 | z6 | z6 | z6 | z6 | z6 | z6 | z6 | z6 | z6 | z6 | z6 | z6 | z6 | z6 | %18
w: ||||||||||||||||||
!p! B2 E2 z2 | z2 z B cB | A>G A2 z2 | F2 B,2 z2 | z2 z c BA | G2 E2 z2 |!f! e6- | e2!p! dc B^A | %26
w: Spo- sa|son dis- prez-|za- * ta,|fi- da|son ol- trag-|gia- ta,|cie-|* li che fe- ci|
 B4 z2 |!f! d6- | d2!p! cB A^G | A2 z2 c2 |{c} B3 E ^DE | F2 z2 B,>B, | G2"_cresc." G2 E>E | %33
w: mai?|Cie-|* li che fe- ci|mai? E|pur egl'- eil mio|cor, il mio|spo- so, il mio|
 ^A2 z F F>F | B6- | B6- |!f! (B6 | B2) T^c4 | B4 z2 | z6 | z6 | z6 | z6 |!p! B2 E2 z2 | %44
w: amor, la mia spe-|ran-||||za|||||Spo- sa|
 z2 z B cd | c2 A2 z2 | A2 D2 z2 | z2 z A Bc | B2 G2 z2 |!f! e6- | e2!p! dc B^A | B6 |!f! d6- | %53
w: son dis- prez-|za- ta,|fi- da,|son ol- trag-|gia- ta|cie-|* li che fe- ci|mai?|Cie-|
 d2 cB A^G | A2 z2 B2 |{B} c3{/B} A{/G} FE |{E} ^D2 z2 BF | G2 G2 BA | G3 E GB | %59
w: * li che fe- ci|mai? E|pur eg- lieil mio|cor, il mio|spo- so, il mio-|amor, la mia spe-|
!pp! c2- c/d/e/c/ A/B/c/A/ |{G} F3 c BA | B2- B/c/d/B/ G/A/B/G/ |{F} E3 B AG | %63
w: ran- * * * * * * * *||||
 A2- A/B/c/A/ F/G/A/F/ |{E} ^D3!p! c BA | G/F/E- EA GF | G<E A<F B<G | cE B,2 TF2 | %68
w: |||||
 E2 z"_cresc." E GB | e6- |!f! e4- eE | E2 TF4 | E4 z2 | z6 | z6 | z6 | z6 | z6 | z6 | %79
w: za, la mia spe-|ran-|||za.|||||||
[M:2/4]!mf!"^Andante" BF z2 | z d ^cB |{B} ^A2 z2 | z4 | dA z2 | z F ED | A2 z2 | z2 z3/2!p! c/ | %87
w: L'a- mo|mae- gl'ein- fe-|del,||spe- ro|mae- gl'e- cru-|del,|mo-|
 BE E^D/E/ | F/E/F z"_cresc." d | ^cF F^E/F/ | ^G2 z!mf! d | ^cB A^G | A^A AA | B!p!G GG | G4- | %95
w: rir mi la- scie- *|rai? * * Mi|la- scie- rai mo- *|rir? O|Dio man- cail va-|lor man- cail va-|lor e la co|stan-|
 G>D TA2 | G2 z2 |] %97
w: |za.|
V:2
!p! eB GE B,G, | G,2 z2 z2 | f^d AF ^DA, | A,2 z2 z2 | ge BG EB, | B,2 z2 z2 | ^ge dB ^GD | %7
 D2 z2 z2 | ae cA EC | C2 z4 |"_cresc." ^a6 | b6 | c'6 | ^d6 | e4 ^A2 |!f! [^DB]2 z D E2 | %16
 z C A,2 B,2 | E,2 z2 z2 |!p! eB GE B,G, | G,2 [EBe]2 z2 | [Af]^d AF ^DA, | f^d AF ^DA, | %22
 A,2 [FBf]2 z2 | ge BG EB, |!f! e6- | e2!p! E4 | BF DB, B,B, |!f! [DFd-]6 | d2!p! cB A^G | %29
 AE CA, A,c |{/c} B3 B AG | [^DF]2 [F^df]2 z2 | ge"_cresc." BG EB, | e^c ^AE D^A, | %34
 z [Bf] [Bf][Bf] [Bf][Bf] | g6 |!f! ^g6 | fd ^c4 |!f! B[df] [df][df] [df][fg-] | %39
 [fg]"_dim."[eg] [eg][eg] [eg][eg] |{B} ^A2 z F B2 | z G E2 F2 | B,2 z2 z2 |!p! dB ^GE B,^G, | %44
 ^G,2 [^Gd]2 z2 | [ca]e cA EC | cA FC A,F, | F,2 [Ac]2 z2 | gd BG DB, |!f! e6- | e2!p! dc B^A | %51
 BF DB, B,B, |!f! d6- | d2!p! cB A^G | [CA]E CA, [E-Be-]2 | ec Ac AG | FB B,2 z2 | eB GE BB, | %58
 eB GE GB- |!pp! B2 A4- | AA AA AA- | A2 G4- | GG GG GG- | G2 F4- | FF F!p!F GF | %65
 [EG]B e[Ac] [GB][FA] | GG [FA][FA] [EB][EB] | cA GG FF | E[EB] [EB]"_cresc."[EB] [EB][EB] | c6 | %70
!f! ^c6 | BG F4 | EB B4 |"_dim." c6 | ^d6 | e4 ^A2 | B2 z ^D E2 | z!p! C A,2 B,2 | E,2 z2 z2 | %79
[M:2/4]!mf! z2!p! [Fd]/[DB]/[E^c]/[^C^A]/ | D z z2 | z/!mf! F/E/D/ ^C/B,/^A,/G,/ | F,2 z2 | %83
 z2!p! [fa]/[df]/[eg]/[^ce]/ | [df] z z2 | z/!mf! A/^G/F/ E/D/^C/B,/ | A,2 z2 | %87
 z!p! [E^A] [EA][EA] | [^DFB]2 z2 | z"_cresc." [Fc] [Fc][Fc] | [^E^G^c]2 z!mf! [Bd] | %91
 [A^c][^GB] [FA][^CG] | [^CA][F^A] [FA][FA] | [B,FB] z z2 | z!p! B, C^C | D4 | G,2 z2 |] %97
V:3
 E,6- | E,2 z4 | F,6- | [F,,F,]2 z2 z2 | z2 G,4- | G,2 z2 z2 | z2 B,2 B,2 | B,2 z2 z2 | %8
 z2 A,2 A,2 | A,2 z2 z2 | z C CC CC | z B, B,B, B,B, | B,B, B,B, A,,A, | A,A, A,A, A,A, | %14
 z G, G,G,, z2 | ^D,,2 B,,,2 G,,,2 | z [C,,C,] [A,,,A,,]2 [B,,,B,,]2 | [E,,,E,,]2 z2 z2 | %18
 E,2 E,2 E,2 | E,2 G,2 E,2 | B,,2 B,,2 B,,2 | B,,6- | B,,2 ^D,2 D,2 | E,6 | z E,, G,,F,, E,,D,, | %25
 z2 C,2 C,2 | B,,6 | z B,, D,C, B,,A,, | z2 E,2 E,2 | C,2 A,,2 [A,,,A,,]2 | B,,6- | %31
 B,,2 B,,2 ^D,2 | E,2 E,2 E,2 | [^A,,E,F,]6 | z D, D,D, D,D, | E,6 | ^E,6 | z F, F,F,- F,2 | %38
 B,,4- [B,,B,-]2 | B,4 ^C2- | C4 B,2 | z G,, E,,2 F,,2 | B,,,B,, D,C, B,,A,, | z2 E,2 E,2 | E,6 | %45
 z2 A,2 A,2 | z2 A,,2 A,,2 | A,,6 | z2 G,2 G,2 | z E,, G,,F,, E,,D,, | z2 A,,2 A,,2 | B,,6 | %52
 z B,, D,C, B,,A,, | z2 E,2 E,2 | A,,4 ^G,,2 | A,,2 A,,2 A,,2 | B,,2 B,,,2 z2 | G,4 F,A, | G,6 | %59
 z A, A,A, A,A, | [D,F,]6 | z G, G,G, G,G, | [C,E,]6 | z F, F,F, F,F, | [B,,^D,]6 | E,2 E,,2 B,,2 | %66
 E,2 F,2 G,2 | A,2 B,2 B,,2 | E,G, G,G, G,G, | A,6 | ^A,6 | z B, B,B, B,2 | z E, E,E, E,E, | %73
 z A, A,A, A,A, | A,A, A,A, A,A, | z G, G,G,, z2 | ^D,,2 B,,,2 G,,,2 | %77
 z [C,,C,] [A,,,A,,]2 [B,,,B,,]2 | [E,,,E,,]2 z2 z2 |[M:2/4] [B,,,B,,] z B,F, | B,, z z2 | %81
 z/ F,/E,/D,/ ^C,/B,,/^A,,/G,,/ | F,,2 z2 | [D,,D,] z DA, | D, z z2 | %85
 z/ A,/^G,/F,/ E,/D,/^C,/B,,/ | A,,2 z2 | z C, C,C, | B,,B,,, z2 | z D, D,D, | ^C,^C,, z2 | %91
 z2 z ^E, | F,E, E,E, | D, z z2 | z B,, C,^C, | D,2 D,,2 | G,,2 z2 |] %97
V:4
 z2 E,2 E,,2 | E,,2 z2 z2 | z2 F,2 F,,2 | x6 | x2 G,2 G,,2 | G,,2 x4 | D,6- | D,2 x4 | C,6- | %9
 C,2 x4 | C,6 | B,,6- | B,,4 A,,2- | A,,6 | G,,3 G,, F,,E,, | x6 | x6 | x6 | E,,6- | %19
 E,,2 G,,2 E,,2 | B,,,6- | B,,,2 B,,,2 B,,,2 | B,,,2 ^D,,4 | E,,2 E,,2 E,,2 | x6 | C,,6 | %26
 z2 B,,,2 B,,,2 | x6 | ^G,,2 E,,4 | x6 | B,,,2 B,,,2 B,,,2 | B,,,2 B,,,2 ^D,,2 | E,,6- | %33
 E,,2 E,,2 E,,2 | x6 | z E,, E,,E,, E,,E,, | z ^E,, E,,E,, E,,E,, | F,,4 F,,F,, | x6 | E,6 | %40
 F,2 E,2 D,2 | x6 | x6 | ^G,,6- | G,,2 E,,2 E,,2 | A,,6 | F,,6- | F,,2 F,,2 F,,2 | G,,6 | x6 | %50
 C,,4 x2 | z2 D,,2 D,,2 | x6 | ^G,,2 E,,4 | A,,2 A,,,2 ^G,,,2 | A,,,6 | x6 | E,2 E,2 ^D,2 | %58
 E,2 E,2 E,2 | A,,6 | x6 | G,,6 | x6 | F,,6 | x6 | x6 | x6 | x6 | x6 | z A,, A,,A,, A,,A,, | %70
 z ^A,, A,,A,, A,,A,, | B,,4 B,,B,, | E,,6 | A,,6- | A,,6 | G,,3 G,, F,,E,, | x6 | x6 | x6 | %79
[M:2/4] x4 | x4 | x4 | x4 | x4 | x4 | x4 | x4 | x4 | x4 | x4 | x4 | x4 | x4 | x4 | x4 | x4 | x4 |] %97
V:5
 x6 | x6 | x6 | x6 | x6 | x6 | x6 | x6 | x6 | x6 | z [^Ae] [Ae][Ae] [Ae][Ae] | %11
 z [B^d] [Bd][Bd] [Bd][Bd] | z [ce] [ce][ce] [cf][cf] | z [FB] [FB][FB] [FB][FB] | %14
 z [EB] [EB]G FE | x2 B,2 G,2 | x6 | x6 | x6 | x6 | x6 | x6 | x6 | x6 | x6 | x6 | x6 | x6 | E6 | %29
 x6 | E4 FE | x6 | x6 | x6 | x6 | z [GB] [GB][GB] [GB][GB] | z [^GB] [GB][GB] [GB][GB] | %37
 z B2 B ^AA | x6 | x6 | x6 | x6 | x6 | x6 | x6 | x6 | x6 | x6 | x6 | G6- | G2 E4 | x6 | [DF]6 | %53
 E6 | x6 | E4 FE | ^D2 x4 | x6 | x6 | c6- | cc cc cc | B6- | BB BB BB | A6- | AA Ac BA | x6 | x6 | %67
 E3 E ^DD | x6 | z [CE] [CE][CE] [CE][CE] | z [^CE] [CE][CE] [CE][CE] | z E2 E ^DD | E2 G2 B2- | %73
 B2 A2 G2- | G2 ^D2 B2- | B3 G FE | ^D2 B,2 G,2 | x6 | x6 |[M:2/4] x4 | B2 x2 | x4 | x4 | x4 | x4 | %85
 x4 | x4 | x4 | x4 | x4 | x4 | x4 | x4 | x4 | x4 | [G,B,]2 [F,A,]2 | x4 |] %97
V:6
 x6 | x6 | x6 | x6 | x6 | x6 | x6 | x6 | x6 | x6 | x6 | x6 | x6 | x6 | x6 | x6 | x6 | x6 | x6 | %19
 x6 | x6 | x6 | x6 | x6 | E6- | E2 dc B^A | x6 | x6 | x6 | x6 | G4 ^D x | x6 | x6 | x6 | x6 | x6 | %36
 x6 | x6 | x6 | x6 | x6 | x6 | x6 | x6 | x6 | x6 | x6 | x6 | x6 | E6- | E2 x4 | x6 | x6 | x6 | x6 | %55
 x6 | x6 | x6 | x6 | E6 | x6 | D6 | x6 | C6 | x6 | x6 | x6 | x6 | x6 | x6 | x6 | x6 | x6 | x6 | %74
 x6 | x6 | x6 | x6 | x6 |[M:2/4] x4 | x4 | x4 | x4 | x4 | x4 | x4 | x4 | x4 | x4 | x4 | x4 | x4 | %92
 x4 | x4 | x4 | x4 | x4 |] %97
V:7
 x6 | x6 | x6 | x6 | x6 | x6 | x6 | x6 | x6 | x6 | x6 | x6 | x6 | x6 | x6 | x6 | x6 | x6 | x6 | %19
 x6 | x6 | x6 | x6 | x6 | G6- | G z x4 | x6 | x6 | x6 | x6 | x6 | x6 | x6 | x6 | x6 | x6 | x6 | %37
 x6 | x6 | x6 | x6 | x6 | x6 | x6 | x6 | x6 | x6 | x6 | x6 | x6 | x6 | x6 | x6 | x6 | x6 | x6 | %56
 x6 | x6 | x6 | x6 | x6 | x6 | x6 | x6 | x6 | x6 | x6 | x6 | x6 | x6 | x6 | x6 | x6 | x6 | x6 | %75
 x6 | x6 | x6 | x6 |[M:2/4] x4 | x4 | x4 | x4 | x4 | x4 | x4 | x4 | x4 | x4 | x4 | x4 | x4 | x4 | %93
 x4 | x4 | x4 | x4 |] %97

